usr/share/icons/biglinux-icons-material/22/actions/tool-measure.svg

<svg xmlns="http://www.w3.org/2000/svg" viewBox="0 0 22 22"><path d="M3 3v7h16V3H3zm1 1h2v2h1V4h1v3h1V4h1v2h1V4h1v2h1V4h1v3h1V4h3v5H4V4zm2.707 9-3 3 3 3v-6zM16 13v6l3-3-3-3z" style="fill:currentColor;fill-opacity:1;stroke:none;color:#dedede"/></svg>

<svg xmlns="http://www.w3.org/2000/svg" viewBox="0 0 22 22">
  <defs id="defs3051">
    <style type="text/css" id="current-color-scheme">
      .ColorScheme-Text {
        color:#363636;
      }
      </style>
  </defs>
 <path 
    style="fill:currentColor;fill-opacity:1;stroke:none" 
    d="M 3 3 L 3 10 L 4 10 L 19 10 L 19 9 L 19 4 L 19 3 L 4 3 L 3 3 z M 4 4 L 5 4 L 6 4 L 6 6 L 7 6 L 7 4 L 8 4 L 8 7 L 9 7 L 9 4 L 10 4 L 10 6 L 11 6 L 11 4 L 12 4 L 12 6 L 13 6 L 13 4 L 14 4 L 14 7 L 15 7 L 15 4 L 17 4 L 18 4 L 18 9 L 4 9 L 4 7 L 4 4 z M 6.7070312 13 L 3.7070312 16 L 6.7070312 19 L 6.7070312 13 z M 16 13 L 16 19 L 19 16 L 16 13 z "
    class="ColorScheme-Text"
    />  
</svg>
